X:3879
L:1/16
M:3/8
K:G
 B2 BBAB | d2 ddBG | A2 BEFE | G4 z2 | B2 BBAB | d2 ddBG | g2 GGAB | c4 z2 :: B2g G2d | g2 fedc | 
 B2 d c2 B | ABcd z2 | B2 g G2 d | g2 fedc | B2 dcBA | G4 z2 :|

